X:1
T:Title
L:1/8
M:4/4
I:linebreak 
K:F
V:1 treble nm="Voice"
V:1
 d'bge fedc | fafa .c'.a.c'.a | _egeg .b.g.b.g | fafa .c'.a.c'.a | d'bge f4 |] (d'4 b4) | z8 | %7
w: |||||Fingering1 *||
 (d'4 b4) | z8 | (g4 e4) | z8 | (g4 e4) | (d'2 b2) z4 | (d'2 b2) z4 | (g2 e2) z4 | (g2 e2) z4 | %16
w: |||||Fingering2 *||||
 (d'b) z2 (ge) z2 | d'b z2 ge z2 | d'2 b2 g2 e2 | z8 | d'2 b2 g2 e2 | z8 | (d'b)(ge) z4 | %23
w: Fingering3 * * *||Fingering3 * * *||||Fingering4 * * *|
 !tenuto!d'!tenuto!b!tenuto!g!tenuto!e z4 | .d'.b.g.e z4 | %25
w: ||